X:1
T:6 vierstimmige Hymnen oder Figuralgesänge
T:Ehre sei Gott in der Höhe
T:Friedrich Silcher
T:Paul Gerhardt
T:Ehre sei Gott
T:Op. 9, 2
T:CPDL   —   Creative Commons Attribution Non Commercial 3.0
T:CPDL   —   Creative Commons Attribution Non Commercial 3.0
T:CPDL   —   Creative Commons Attribution Non Commercial 3.0
T:CPDL   —   Creative Commons Attribution Non Commercial 3.0
C:Friedrich Silcher
Z:Paul Gerhardt
Z:CPDL   —   Creative Commons Attribution Non Commercial 3.0
%%score [ ( 1 2 ) 3 4 ]
L:1/8
Q:1/4=120
M:4/4
K:C
V:1 treble nm="Sopran\nAlt"
V:2 treble 
V:3 treble-8 nm="Tenor"
V:4 bass nm="Bass"
V:1
"^Lebhaft"!f!!>(! c4!>)! G2 z2 |!f!!>(! e4!>)! c2 z2 |!f! c2 cc B2 BB | (c2 d2) e2!p! z2 | z8 | %5
w: Eh- re,|Eh- re,|Eh- re sei Gott in der|Hö- * he,||
w: |||||
 z4 z2!mf! BB | (d2 c2) B2 d2 | e4 d4 | (c4 B4) |!>(! c4!>)!!f! c2!<(! c2 | d4!<)! e2 f2 | %11
w: und den|Men- * schen ein|Wohl- ge-|fal- *|len, und den|Men- schen ein|
w: ||||||
 (g4 c2) f2 | (e4!>(! d4) | c4!>)! z4 |!mf! z8 | z4 z2!<(! GG!<)! | (B4 c4) |!>(! B4!>)! z4 | z8 | %19
w: Wohl- * ge-|fal- *|len.||in der|Hö- *|he!||
w: ||||||||
 z4 z2!<(! BB!<)! | (d4 e4) |!>(! d4!>)! z2!p! G2 | (B2 A2) G2 ^F2 |!>(! G4!>)! D2!mf! B2 | %24
w: in der|Hö- *|he! und|Frie- * de auf|Er- den, und|
w: |||||
 (d2 c2) B2 A2 | B4 G2"^cresc." GG | c4 c2 c2 |!f! (e4 d2) c2 | (B4!>(! A4) | G4!>)! z4 | %30
w: Frie- * de auf|Er- den und den|Men- schen ein|Wohl- * ge-|fal- *|len.|
w: ||||||
!f!!>(! B4!>)! G2 z2 |!f!"^poco"!>(! d4!>)! B2 z2 |!f!"^cresc." c2 cc B2 BB | (c2 d2) e2!p! z2 | %34
w: Eh- re,|Eh- re,|Eh- re sei Gott in der|Hö- * he,|
w: ||||
 z8 | z4 z2!mf! BB | (d2 c2) B2"^cresc." d2 | e4 d4 |!>(! (c4 B4)!>)! | c4"^cresc." c2 c2 | %40
w: |und den|Men- * schen ein|Wohl- ge-|fal- *|len, und den|
w: ||||||
 d4 e2 f2 |!f! (g4 c2) f2 | (e4!>(! d4)!>)! | c4 z4!fine! |]: %44
w: Men- schen ein|Wohl- * ge-|fal- *|len.|
w: ||||
[M:4/2][Q:1/4=120]"^Langsam"!p!"^Choral" C4 | G4!<(! G4 A4 B4!<)! | c8!>(! !fermata!c4!>)!!mf! e4 | %47
w: Wie|soll ich dich em-|pfan- gen, und|
w: o|al- ler Welt Ver-|lan- gen, o|
 d4 c4 c4!>(! B4!>)! | !fermata!c8 z4 :|!f! c4 | e4 e4 d4 c4 |!>(! (B4 A4)!>)! !fermata!G4!mf! B4 | %52
w: wie be- geg- nen|dir!|Gib|selbst mir zu er-|ken- * nen, wie|
w: mei- ner See- le|Zier!||||
 c4 B4 A4 A4 | !fermata!G8 z4!p! (G2 F2) |"^cresc." E4 G4 A4 G4 | %55
w: dei- ner Gü- te|voll, dich *|mei ne See- le|
w: |||
"^dim." (G6 F2) !fermata!E4!p! G4 | F4"^dim." E4 D4 D4 | !fermata!C8 z4!D.C.! |] %58
w: nen- * nen, dich|wür- dig prei- sen|soll.|
w: |||
V:2
 E4 E2 x2 | G4 G2 x2 | G2 GG G2 GG | G4 G2 G2 | F4 E2 F2 | E2 D2 x2 GG | G4 G2 G2 | G4 A4 | %8
w: |||* * und|Frie- den auf|Er- den * *|||
 (G6 F2) | E4 E2 E2 | G4 G2 A2 | (G4 E2) A2 | (G6 F2) | E4 x4 | G4 B2 d2 | G8- | G8- | G4 x4 | %18
w: ||||||Eh- re sei|Gott!|_||
 G4 B2 d2 | G8- | G8- | G4 z4 | z8 | z4 z2 G2 | (B2 A2) G2 ^F2 | G4 G2 GG | G4 G2 G2 | G6 A2 | %28
w: Eh- re sei|Gott!|_||||||||
 (G4 ^F4) | G4 x4 | G4 G2 x2 | G4 G2 x2 | G2 GG G2 GG | G4 G2 G2 | F4 E2 F2 | E2 D2 x2 GG | %36
w: |||||* * und|Frie- de auf|Er- den, * *|
 G4 G2 G2 | G4 A4 | (G6 F2) | E4 E2 E2 | G4 G2 A2 | (G4 E2) A2 | (G6 F2) | E4 x4 |]:[M:4/2] C4 | %45
w: |||||||||
 D4 E4 F4 F4 | (E4 F4) E4 G4 | G4 E4 F4 D4 | E8 x4 :| E4 | G4 G4 G4 A4 | (G4 ^F4) E4 E4 | %52
w: |||||||
 (E2 ^F2) G4 E4 (D2 C2) | B,8 x4 D4 | C4 E4 F4 E4 | D8 C4 C4 | C4 C4 C4 B,4 | C8 x4 |] %58
w: ||||||
V:3
!f!!>(! G4!>)! c2 z2 |!f!!>(! c4!>)! e2 z2 |!f! e2 ee d2 dd | (c2 B2) c2!p! G2 | %4
w: Eh- re,|Eh- re,|Eh- re sei Gott in der|Hö- * he, und|
w: ||||
 (A2 B2)!<(! c2 d2!<)! |!>(! c2 B2!>)! z2!mf! dd | (B2 c2) d2 B2 | c4 f4 | (e4 d4) | %9
w: Frie- * den auf|Er- den und den|Men- * schen ein|Wohl- ge-|fal- *|
w: |||||
!>(! c4!>)!!f! c2!<(! c2 | B4!<)! c2 c2 | c6 c2 | (c4!>(! B4) | c4!>)! z4 | z8 | z4 z2!<(! BB!<)! | %16
w: len, und den|Men- schen ein|Wohl- ge-|fal- *|len.||in der|
w: |||||||
 (d4 e4) |!>(! d4!>)! z4 | z8 | z4 z2!<(! dd!<)! | (B4 c4) |!>(! B4!>)! z2!p! B2 | (G2 A2) B2 c2 | %23
w: Hö- *|he!||in der|Hö- *|he! und|Frie- * de auf|
w: |||||||
!>(! B4!>)! B2!mf! d2 | d4 d2 d2 | d4 B2"^cresc." BB | c4 c2 c2 |!f! (c4 d2) e2 | (d6!>(! c2) | %29
w: Er- den, und|Frie- de auf|Er- den und den|Men- schen ein|Wohl- * ge-|fal- *|
w: ||||||
 B4!>)! z4 |!f!!>(! d4!>)! B2 z2 |!f!"^poco"!>(! B4!>)! d2 z2 |!f!"^cresc." e2 ee d2 dd | %33
w: len.|Eh- re,|Eh- re,|Eh- re sei Gott in der|
w: ||||
 (c2 B2) c2!p! G2 | (A2 B2)!<(! c2 d2!<)! |!>(! c2 B2!>)! z2!mf! dd | (B2 c2) d2"^cresc." B2 | %37
w: Hö- * he, und|Frie- * de auf|Er- den, und den|Men- * schen ein|
w: ||||
 c4 f4 |!>(! (e4 d4)!>)! | c4"^cresc." c2 c2 | B4 c2 c2 |!f! c6 c2 | (c4!>(! B4)!>)! | c4 z4 |]: %44
w: Wohl- ge-|fal- *|len, und den|Men- schen ein|Wohl- ge-|fal- *|len.|
w: |||||||
[M:4/2]!p! E4 | G4!<(! c4 c4 d4!<)! | (G4 A4)!>(! !fermata!G4!>)!!mf! c4 | B4 c4 A4!>(! G4!>)! | %48
w: Wie|soll ich dich em-|pfan- * gen, und|wie be- geg- nen|
w: o|al- ler Welt Ver-|lan- * gen, o|mei- ner See- le|
 !fermata!G8 z4 :|!f! G4 | c4 c4 d4 e4 |!>(! d6 c2!>)! !fermata!B4!mf! G4 | c4 d4 (A2 G2) ^F4 | %53
w: dir!|Gib|selbst mir zu er-|ken- * nen, wie|dei- ner Gü- * te|
w: Zier!|||||
 !fermata!G8 z4!p! G4 |"^cresc." G4 c4 c4 c4 |"^dim." (G4 B4) !fermata!c4!p! c4 | %56
w: voll, dich|mei- ne See- le|nen- * nen, dich|
w: |||
 A4"^dim." G4 A4 (G2 F2) | !fermata!E8 z4 |] %58
w: wür- dig prei- sen _|soll.|
w: ||
V:4
!f!!>(! C,4!>)! C,2 z2 |!f!!>(! C,4!>)! C,2 z2 |!f! C2 CC G,2 G,G, | (E,2 G,2) C,2!p! E,2 | %4
w: ||||
 D,4!<(! C,2 F,2!<)! |!>(! G,2 G,,2!>)! z2!mf! G,G, | G,4 G,2 G,2 | C4 F,4 | G,8 | %9
w: |||||
!>(! C,4!>)!!f! A,2!<(! A,2 | G,4!<)! C2 F,2 | (E,4 A,2) F,2 | (G,4!>(! G,,4) | C,4!>)! z4 | %14
w: |||||
!mf! G,4 B,2 D2 | G,8- | G,8- | G,4 z4 | G,4 B,2 D2 | G,8- | G,8- | G,4 z2!p! G,2 | D,4 D,2 D,2 | %23
w: Eh- re sei|Gott!|_||Eh- re sei|Gott!|_|||
!>(! G,4!>)! G,2!mf! G,2 | D,4 D,2 D,2 | G,4 G,2"^cresc." G,G, | E,4 E,2 E,2 |!f! (C,4 B,,2) C,2 | %28
w: |||||
 D,8 |!>(! G,,4!>)! z4 |!f!!>(! G,4!>)! G,2 z2 |!f!"^poco"!>(! G,4!>)! G,2 z2 | %32
w: ||||
!f!"^cresc." C2 CC G,2 G,G, | (E,2 G,2) C,2!p! E,2 | D,4!<(! C,2 F,2!<)! | %35
w: |||
!>(! G,2 G,,2!>)! z2!mf! G,G, | G,4 G,2"^cresc." G,2 | C4 F,4 |!>(! G,8!>)! | %39
w: ||||
 C,4"^cresc." A,2 A,2 | G,4 C2 F,2 |!f! (E,4 A,2) F,2 | (G,4!>(! G,,4)!>)! | C,4 z4 |]: %44
w: |||||
[M:4/2]!p! C,4 | B,,4!<(! C,4 F,4 D,4!<)! | C,8!>(! !fermata!C,4!>)!!mf! C,4 | %47
w: |||
 G,4 A,4 F,4!>(! G,4!>)! | !fermata!C,8 z4 :|!f! C,4 | C,4 C,4 B,,4 C,4 | %51
w: ||||
!>(! D,8!>)! !fermata!E,4!mf! E,4 | A,,4 B,,4 C,4 D,4 | !fermata!G,,8 z4!p! B,,4 | %54
w: |||
"^cresc." C,4 C,4 F,4 C,4 |"^dim." (B,,4 G,,4) !fermata!C,4!p! E,4 | %56
w: ||
 F,4"^dim." C,4 [F,,F,]4 [G,,G,]4 | !fermata!C,8 z4 |] %58
w: ||

